X:1
T:Title
%%score 1 2 3 4
L:1/8
M:2/2
K:C
V:1 treble nm="Part_1"
V:2 treble-8 nm="Part_2"
V:3 treble-8 nm="Part_3"
V:4 treble-8 nm="Part_4"
V:1
 G8 | A4 A4 | B8 | c2 BA G4 | c4 B2 A2- | AG G4 ^F2 | G4 z2 D2 | E4 D4 | E2 F2 G4 | A2 c2 B4 | %10
 c4 d2 e2- | ed c4 B2 | c2 A4 G2 | E8 | D4 E2 E2 | D4 C2 G2- | G2 FE D4 | C4 z2 G2 | A2 c4 B2 | %19
 c2 B2 G2 A2- | AGFE D2 G2- | GD G3 ^FFE | G4 z4 | (3G4 G4 A4 | (3B4 B4 c4 | (3:2:2d8 c4 | %26
 (3:2:2B4 A8 | (3G4 B4 c4- | (3c4 B4 d4 | (3e6 d2 c4 | B8 | G2 G2 A2 c2- | c2 B2 c3 B | G4 B4 | %34
 c4 d4 | (3:2:2e8 f4 | (3:2:2d8 c4 | (3:2:2f8 e4 | (3d4 e6 d2 | (3:2:4c6 B2 B2 A2 | c8 |] %41
V:2
 d8 | d4 d4 | d4 g4 | g8 | g4 g2 f2- | f2 e2 d4 | B2 e2 d2 g2- | g2 g2 g4 | g4 c4- | c4 d4 | %10
 z2 c2 f2 e2 | g2 a2 g4 | e2 f4 g2 | g8 | z4 c4 | B2 B2 c2 BA | G2 A2 B4 | c2 e4 c2 | f2 e2 d4 | %19
 c2 d2 e2 f2- | fedc B2 G2 | B2 c2 A4 | G8 | z8 | z8 | z8 | z8 | (3d4 g4 g4- | (3g4 g4 a4 | %29
 (3a4 e4 f4 | g8 | z2 g2 f2 g2- | gf d2 e3 c | e2 f2 g4 | g3 g a4 | (3:2:2g8 a4 | (3:2:2a8 a4 | %37
 (3f6 e2 c4 | (3f4 e4 a4 | (3:2:2g8 g4 | g8 |] %41
V:3
 g8 | ^f4 f4 | g2 fe d4 | c4 e4 | e4 d4 | c2 B2 A4 | G4 B4 | c4 B4 | c2 d2 e4 | f2 e2 g4 | %10
 e4 f2 g2 | e2 f2 d4 | c8- | c8 | z8 | z8 | z8 | z8 | z8 | z8 | z8 | z8 | z8 | (3e4 e4 f4 | %24
 (3:2:2g8 e4 | (3:2:4f4 d4 e2 f2 | (3:2:4g6 f2 f2 e2 | (3g4 d4 e4- | (3e4 d4 f4 | (3:2:2e4 c8 | %30
 d8 | e2 e2 f2 e2 | d4 c4- | c4 d4 | e4 f4 | (3:2:2c8 d4 | (3:2:2f8 e4 | (3:2:2d8 e4 | (3f4 g4 c4 | %39
 (3:2:2e4 d8 | c8 |] %41
V:4
 G8 | D8 | G8 | C8 | C4 G2 D2 | F2 G2 D4 | E2 C2 G4 | C4 G4 | C8 | F2 A2 G4 | A4 D2 C2 | c2 F2 G4 | %12
 A2 F4 E2 | C8 | G2 B2 A2 c2 | G4 z2 C2 | E2 F2 G4 | C6 E2 | D2 C2 G4 | A2 G2 E2 D2- | DE F2 G3 F | %21
 ED C2 D4 | E4 C4 | (3c4 c4 A4 | (3G4 G4 A4 | (3:2:2D8 A4 | (3:2:2G4 d8 | (3:2:2G8 C4- | %28
 (3C4 G4 D4 | (3:2:2A8 A4 | G8 | C4 F2 C2 | G4 C4 | C4 G4 | C4 z4 | (3C4 E4 D4 | (3:2:2D8 A4 | %37
 (3:2:2D8 A4 | (3d4 c4 A4 | (3:2:2c4 G8 | C8 |] %41

